// SuperCollider workshop
// Making cute music and sound for begginers.
// 2016/04/24 Sun at tksc

入門SCワークショップ「プログラミングでかわいい音と音楽をつくろう」


SuperColliderの基本操作
・サーバーを起動
・enterで実行、command . で停止
・ヘルプやクラス定義の参照
・参考になるウェブサイトなど

SynthDefの記述
・SynthDefは、楽器を作るようなもの


Patternの記述
・Patternは、シーケンスを作るようなもの


